svgs/thin/folder-tree.svg

<svg xmlns="http://www.w3.org/2000/svg" viewBox="0 0 576 512"><!-- Font Awesome Pro 6.0.0-alpha2 by @fontawesome - https://fontawesome.com License - https://fontawesome.com/license (Commercial License) --><path d="M544 32H432L404.686 4.688C401.684 1.688 397.615 0 393.371 0H320C302.326 0 288 14.328 288 32V192C288 209.672 302.326 224 320 224H544C561.674 224 576 209.672 576 192V64C576 46.328 561.674 32 544 32ZM560 192C560 200.824 552.822 208 544 208H320C311.178 208 304 200.824 304 192V32C304 23.176 311.178 16 320 16H393.373L420.688 43.312L425.373 48H544C552.822 48 560 55.176 560 64V192ZM544 320H432L404.686 292.688C401.684 289.688 397.615 288 393.371 288H320C302.326 288 288 302.328 288 320V480C288 497.672 302.326 512 320 512H544C561.674 512 576 497.672 576 480V352C576 334.328 561.674 320 544 320ZM560 480C560 488.824 552.822 496 544 496H320C311.178 496 304 488.824 304 480V320C304 311.176 311.178 304 320 304H393.373L420.688 331.312L425.373 336H544C552.822 336 560 343.176 560 352V480ZM248 136C252.406 136 256 132.406 256 128S252.406 120 248 120H16V8C16 3.594 12.406 0 8 0S0 3.594 0 8V384C0 406.062 17.938 424 40 424H248C252.406 424 256 420.406 256 416S252.406 408 248 408H40C26.781 408 16 397.219 16 384V136H248Z"/></svg>

<svg xmlns="http://www.w3.org/2000/svg" viewBox="0 0 576 512"><!--! Font Awesome Pro 6.4.0 by @fontawesome - https://fontawesome.com License - https://fontawesome.com/license (Commercial License) Copyright 2023 Fonticons, Inc. --><path d="M16 8c0-4.4-3.6-8-8-8S0 3.6 0 8V128 384c0 22.1 17.9 40 40 40H256V408H40c-13.3 0-24-10.7-24-24V136H256V120H16V8zM304 32c0-8.8 7.2-16 16-16h74.7c4.2 0 8.3 1.7 11.3 4.7l21.7 21.7c3.6 3.6 8.5 5.6 13.6 5.6H544c8.8 0 16 7.2 16 16V192c0 8.8-7.2 16-16 16H320c-8.8 0-16-7.2-16-16V32zm-16 0V192c0 17.7 14.3 32 32 32H544c17.7 0 32-14.3 32-32V64c0-17.7-14.3-32-32-32H441.3c-.8 0-1.7-.3-2.3-.9L417.4 9.4c-6-6-14.1-9.4-22.6-9.4H320c-17.7 0-32 14.3-32 32zm16 288c0-8.8 7.2-16 16-16h74.7c4.2 0 8.3 1.7 11.3 4.7l21.7 21.7c3.6 3.6 8.5 5.6 13.6 5.6H544c8.8 0 16 7.2 16 16V480c0 8.8-7.2 16-16 16H320c-8.8 0-16-7.2-16-16V320zm-16 0V480c0 17.7 14.3 32 32 32H544c17.7 0 32-14.3 32-32V352c0-17.7-14.3-32-32-32H441.3c-.8 0-1.7-.3-2.3-.9l-21.7-21.7c-6-6-14.1-9.4-22.6-9.4H320c-17.7 0-32 14.3-32 32z"/></svg>
